app/images/about/team/instagram.svg

<svg xmlns="http://www.w3.org/2000/svg" width="18" height="18"><path fill-rule="evenodd" fill="#888" d="M16.908 13.563c-.533 1.96-1.813 3.12-3.797 3.439-.742.119-2.745.191-4.744.191-2.047 0-4.091-.075-4.779-.254-1.95-.504-3.114-1.774-3.424-3.749-.231-1.451-.255-8.191.164-9.654C.874 1.63 2.147.51 4.075.193c.874-.143 2.583-.194 4.31-.194 1.605 0 3.224.044 4.199.098 1.18.062 2.261.442 3.139 1.284.836.801 1.264 1.802 1.372 2.935.128 1.353.211 7.748-.187 9.247zm-1.361-9.102c-.154-1.513-1.079-2.507-2.575-2.742-.741-.112-2.525-.162-4.3-.162-1.712 0-3.416.047-4.166.128-1.5.172-2.508 1.098-2.747 2.59-.247 1.58-.245 7.492-.06 8.68.191 1.236.889 2.085 2.122 2.43.668.188 2.666.254 4.626.254 1.803 0 3.575-.056 4.24-.129 1.514-.166 2.515-1.098 2.754-2.603.247-1.513.247-7.03.106-8.446zm-2.338.594a1.033 1.033 0 01.01-2.065h.012c.567 0 1.026.463 1.021 1.036a1.042 1.042 0 01-1.043 1.029zM8.563 13.01a4.365 4.365 0 01-4.372-4.413 4.443 4.443 0 014.446-4.406 4.37 4.37 0 014.372 4.413 4.451 4.451 0 01-4.446 4.406zm.083-7.265H8.62A2.881 2.881 0 005.744 8.57a2.827 2.827 0 002.803 2.879h.026a2.88 2.88 0 002.876-2.824 2.824 2.824 0 00-2.803-2.88z"/></svg>

<svg 
 xmlns="http://www.w3.org/2000/svg"
 xmlns:xlink="http://www.w3.org/1999/xlink"
 width="18px" height="18px">
<path fill-rule="evenodd"  fill="rgb(136, 136, 136)"
 d="M16.908,13.563 C16.375,15.523 15.095,16.683 13.111,17.002 C12.369,17.121 10.366,17.193 8.367,17.193 C6.320,17.193 4.276,17.118 3.588,16.939 C1.638,16.435 0.474,15.165 0.164,13.190 C-0.067,11.739 -0.091,4.999 0.328,3.536 C0.874,1.630 2.147,0.510 4.075,0.193 C4.949,0.050 6.658,-0.001 8.385,-0.001 C9.990,-0.001 11.609,0.043 12.584,0.097 C13.764,0.159 14.845,0.539 15.723,1.381 C16.559,2.182 16.987,3.183 17.095,4.316 C17.223,5.669 17.306,12.064 16.908,13.563 ZM15.547,4.461 C15.393,2.948 14.468,1.954 12.972,1.719 C12.231,1.607 10.447,1.557 8.672,1.557 C6.960,1.557 5.256,1.604 4.506,1.685 C3.006,1.857 1.998,2.783 1.759,4.275 C1.512,5.855 1.514,11.767 1.699,12.955 C1.890,14.191 2.588,15.040 3.821,15.385 C4.489,15.573 6.487,15.639 8.447,15.639 C10.250,15.639 12.022,15.583 12.687,15.510 C14.201,15.344 15.202,14.412 15.441,12.907 C15.688,11.394 15.688,5.877 15.547,4.461 ZM13.209,5.055 C12.636,5.048 12.184,4.585 12.188,4.019 C12.192,3.450 12.651,2.990 13.219,2.990 L13.231,2.990 C13.798,2.990 14.257,3.453 14.252,4.026 C14.248,4.592 13.782,5.055 13.209,5.055 ZM8.563,13.010 C6.125,13.010 4.172,11.035 4.191,8.597 C4.210,6.160 6.200,4.184 8.637,4.191 C11.068,4.191 13.028,6.167 13.009,8.604 C12.991,11.035 11.000,13.010 8.563,13.010 ZM8.646,5.745 L8.620,5.745 C7.057,5.745 5.771,7.004 5.744,8.570 C5.719,10.144 6.973,11.436 8.547,11.449 L8.573,11.449 C10.135,11.449 11.423,10.191 11.449,8.625 C11.474,7.043 10.220,5.759 8.646,5.745 Z"/>
</svg>
